Catalina-light/actions/22/path-difference.svg

<svg xmlns="http://www.w3.org/2000/svg" viewBox="0 0 22 22">
  <defs id="defs3051">
    <style type="text/css" id="current-color-scheme">
      .ColorScheme-Text {
        color:#4d4d4d;
      }
      .ColorScheme-Highlight {
        color:#3daee9;
      }
      </style>
  </defs>
 <path 
     style="fill:currentColor;fill-opacity:1;stroke:none" 
     d="m 12.357701,3.0000016 a 6.0156652,6.0156652 0 0 0 -1.738903,0.4648 l 0.673632,1.1670398 a 4.6788507,4.6788507 0 0 1 1.065279,-0.2846399 l 0,-1.3471999 z m 1.336816,0.00261 0,1.3471999 a 4.6788507,4.6788507 0 0 1 1.06528,0.2819199 l 0.671024,-1.1619198 a 6.0156652,6.0156652 0 0 0 -1.736292,-0.46736 z M 9.4621418,4.1357295 A 6.0156652,6.0156652 0 0 0 8.1879819,5.4098094 L 9.3550858,6.0808493 A 4.6788507,4.6788507 0 0 1 10.130542,5.2974894 L 9.4621418,4.1355695 Z m 7.1279372,0 -0.671024,1.1670399 a 4.6788507,4.6788507 0 0 1 0.783296,0.7755199 L 17.864223,5.4098094 A 6.0156652,6.0156652 0 0 0 16.590079,4.1357295 Z m 1.945169,2.4307997 -1.167104,0.6736 a 4.6788507,4.6788507 0 0 1 0.284592,1.0652799 l 1.347264,0 A 6.0156652,6.0156652 0 0 0 18.535246,6.5665772 Z M 7.5221947,6.5691372 A 6.0156652,6.0156652 0 0 0 7.0548348,8.3054411 L 3,8.3054891 3,19 l 10.694516,0 0,-4.052224 a 6.0156652,6.0156652 0 0 0 1.738904,-0.4648 l -0.673632,-1.167039 a 4.6788507,4.6788507 0 0 1 -1.127936,0.28976 4.6788507,4.6788507 0 0 1 -0.34464,0.0368 4.6788507,4.6788507 0 0 1 -0.261104,0.01043 4.6788507,4.6788507 0 0 1 -0.6684,-0.0544 A 4.6788507,4.6788507 0 0 1 8.3994843,9.6429289 4.6788507,4.6788507 0 0 1 8.3473243,8.974449 4.6788507,4.6788507 0 0 1 8.4022043,8.3061291 4.6788507,4.6788507 0 0 1 8.6841882,7.2408492 l -1.1618719,-0.67104 z m -3.1853788,3.0731197 2.7154045,0 A 6.0156652,6.0156652 0 0 0 12.357703,14.94512 l 0,2.718016 -8.0208871,0 0,-8.0208791 z m 13.3133141,0 a 4.6788507,4.6788507 0 0 1 -0.281984,1.0652801 l 1.161888,0.67104 a 6.0156652,6.0156652 0 0 0 0.46736,-1.7362881 l -1.347264,0 z m -0.953008,2.2245441 a 4.6788507,4.6788507 0 0 1 -0.775456,0.7832 l 0.6684,1.161919 a 6.0156652,6.0156652 0 0 0 1.274144,-1.274079 l -1.167104,-0.67104 z"
     class="ColorScheme-Text"
     />
 <path 
     style="fill:currentColor;fill-opacity:0.6;stroke:naone" 
     class="ColorScheme-Text"
     d="m 4.3368143,9.6423049 0,8.0208791 8.0208867,0 0,-4.065279 A 4.6788507,4.6788507 0 0 1 8.3994779,9.6423049 l -4.0626636,0 z"
     />
</svg>

<svg viewBox="0 0 22 22" xmlns="http://www.w3.org/2000/svg">
<defs>
<style id="current-color-scheme" type="text/css">.ColorScheme-Text {
        color:#363636;
      }
      .ColorScheme-Highlight {
        color:#3daee9;
      }</style>
</defs>
<path class="ColorScheme-Text" d="m12.358 3a6.0157 6.0157 0 0 0-1.7389 0.4648l0.67363 1.167a4.6789 4.6789 0 0 1 1.0653-0.28464v-1.3472zm1.3368 0.00261v1.3472a4.6789 4.6789 0 0 1 1.0653 0.28192l0.67102-1.1619a6.0157 6.0157 0 0 0-1.7363-0.46736zm-4.2324 1.1331a6.0157 6.0157 0 0 0-1.2742 1.2741l1.1671 0.67104a4.6789 4.6789 0 0 1 0.77546-0.78336l-0.6684-1.1619zm7.1279 0-0.67102 1.167a4.6789 4.6789 0 0 1 0.7833 0.77552l1.1619-0.66848a6.0157 6.0157 0 0 0-1.2741-1.2741zm1.9452 2.4308-1.1671 0.6736a4.6789 4.6789 0 0 1 0.28459 1.0653h1.3473a6.0157 6.0157 0 0 0-0.46475-1.7388zm-11.013 0.002608a6.0157 6.0157 0 0 0-0.46736 1.7363l-4.0548 4.8e-5v10.695h10.695v-4.0522a6.0157 6.0157 0 0 0 1.7389-0.4648l-0.67363-1.167a4.6789 4.6789 0 0 1-1.1279 0.28976 4.6789 4.6789 0 0 1-0.34464 0.0368 4.6789 4.6789 0 0 1-0.2611 0.01043 4.6789 4.6789 0 0 1-0.6684-0.0544 4.6789 4.6789 0 0 1-3.9582-3.9556 4.6789 4.6789 0 0 1-0.05216-0.66848 4.6789 4.6789 0 0 1 0.05488-0.66832 4.6789 4.6789 0 0 1 0.28198-1.0653l-1.1619-0.67104zm-3.1854 3.0731h2.7154a6.0157 6.0157 0 0 0 5.3055 5.3029v2.718h-8.0209v-8.0209zm13.313 0a4.6789 4.6789 0 0 1-0.28198 1.0653l1.1619 0.67104a6.0157 6.0157 0 0 0 0.46736-1.7363h-1.3473zm-0.95301 2.2245a4.6789 4.6789 0 0 1-0.77546 0.7832l0.6684 1.1619a6.0157 6.0157 0 0 0 1.2741-1.2741l-1.1671-0.67104z" fill="#363636"/>
<path class="ColorScheme-Text" d="m4.3368 9.6423v8.0209h8.0209v-4.0653a4.6789 4.6789 0 0 1-3.9582-3.9556h-4.0627z" fill="#363636" fill-opacity=".6" stroke="naone"/>
</svg>
